src/styles/icons/write.svg

<svg width="28" height="30" fill="current" xmlns="http://www.w3.org/2000/svg"><path fill-rule="evenodd" clip-rule="evenodd" d="M20.2282.78262c-.2344-.23442-.5524-.366116-.8839-.366116s-.6495.131696-.8839.366116L3.13976 16.1033c-.15704.157-.26941.3531-.32554.5679L1.14755 23.052c-.11215.4293.01175.886.32554 1.1997.31379.3138.77043.4377 1.19979.3256l6.38071-1.6667c.21489-.0561.41094-.1685.56798-.3255L24.9422 7.26443c.4882-.48815.4882-1.27961 0-1.76776L20.2282.78262ZM5.14735 17.6312 19.3443 3.43427l2.9463 2.94628L8.09363 20.5775l-3.98794 1.0417 1.04166-3.988Z"/><path d="M1.66663 27.0832c-.69036 0-1.250004.5596-1.250004 1.25 0 .6903.559644 1.25 1.250004 1.25H26.6666c.6904 0 1.25-.5597 1.25-1.25 0-.6904-.5596-1.25-1.25-1.25H1.66663Z"/></svg>

<svg width="28" height="30" viewBox="0 0 28 30" fill="current" xmlns="http://www.w3.org/2000/svg">
<path fill-rule="evenodd" clip-rule="evenodd" d="M20.2282 0.78262C19.9938 0.5482 19.6758 0.416504 19.3443 0.416504C19.0128 0.416504 18.6948 0.5482 18.4604 0.78262L3.13976 16.1033C2.98272 16.2603 2.87035 16.4564 2.81422 16.6712L1.14755 23.052C1.0354 23.4813 1.1593 23.938 1.47309 24.2517C1.78688 24.5655 2.24352 24.6894 2.67288 24.5773L9.05359 22.9106C9.26848 22.8545 9.46453 22.7421 9.62157 22.5851L24.9422 7.26443C25.4304 6.77628 25.4304 5.98482 24.9422 5.49667L20.2282 0.78262ZM5.14735 17.6312L19.3443 3.43427L22.2906 6.38055L8.09363 20.5775L4.10569 21.6192L5.14735 17.6312Z" fill="current"/>
<path d="M1.66663 27.0832C0.97627 27.0832 0.416626 27.6428 0.416626 28.3332C0.416626 29.0235 0.97627 29.5832 1.66663 29.5832H26.6666C27.357 29.5832 27.9166 29.0235 27.9166 28.3332C27.9166 27.6428 27.357 27.0832 26.6666 27.0832H1.66663Z" fill="current"/>
</svg>
